build/images/backgrounds/request_form/desktop.svg

<svg width="1552" height="512" viewBox="0 0 1552 512" fill="none" xmlns="http://www.w3.org/2000/svg">
<g clip-path="url(#clip0_7683_26382)">
<path opacity="0.9" d="M67.3061 301.055C84.479 299.945 85.2397 316.048 85.2397 316.048C85.2397 316.048 86.2889 315.504 88.0609 314.987C88.0619 314.971 88.064 314.954 88.0649 314.938C89.421 314.565 91.1275 314.219 93.0883 314.118C93.1389 314.115 93.1897 314.112 93.2406 314.11C93.3022 314.107 93.3641 314.104 93.4262 314.102C95.5071 314.011 97.8636 314.203 100.348 314.938C108.509 317.352 108.819 324.21 108.826 324.374C108.904 324.372 109.022 324.369 109.179 324.365C111.496 324.295 124.811 323.973 136.869 325.487C149.78 327.001 146.409 333.884 146.222 334.245C147.786 334.053 164.782 331.936 173.28 329.819C174.672 329.454 176.267 329.301 177.931 329.315H178.041C187.03 329.386 198.066 334.303 190.455 336.927C188.58 337.573 176.763 338.193 159.243 338.758C159.1 338.763 158.957 338.767 158.813 338.772C157.775 338.805 156.718 338.838 155.642 338.871C153.372 338.941 151.018 339.01 148.588 339.077C147.82 339.099 147.044 339.119 146.26 339.14C144.391 339.19 142.481 339.24 140.532 339.289C139.232 339.322 137.914 339.355 136.581 339.387C134.916 339.427 133.226 339.467 131.513 339.506C119.795 339.776 107.009 340.026 93.8041 340.25C93.6752 340.252 93.5463 340.255 93.4174 340.257C24.0526 341.43 -56.6852 341.897 -54.9732 340.925C-39.4302 332.263 -7.69198 332.04 -7.69198 332.04C-7.69198 332.04 -3.01837 319.046 7.52481 317.824C18.0486 316.605 19.6927 328.664 19.6986 328.708C19.7205 328.665 22.1155 323.922 27.7416 321.379C33.3684 318.836 38.6719 319.265 38.7192 319.269C38.7192 319.269 50.1326 302.054 67.3061 301.055Z" fill="white"/>
<g opacity="0.5" filter="url(#filter0_f_7683_26382)">
<path d="M1005.63 43.1645C870.522 -76.3124 860.146 -285.283 982.45 -423.584C1104.75 -561.885 1313.43 -577.145 1448.53 -457.668C1583.63 -338.191 1594.01 -129.221 1471.7 9.0804C1349.4 147.382 1140.73 162.642 1005.63 43.1645Z" fill="#DAF0FF"/>
</g>
<g opacity="0.56" filter="url(#filter1_f_7683_26382)">
<ellipse cx="192.832" cy="647.827" rx="442.766" ry="636.759" transform="rotate(-120 192.832 647.827)" fill="#DAF0FF"/>
</g>
<path opacity="0.5" d="M1455.42 379.836C1455.42 380.909 1454.77 381.556 1453.47 381.779L1452.37 381.503H1441.47C1440.02 381.248 1439.3 380.558 1439.3 379.454C1439.3 376.641 1441.99 375.622 1447.36 376.397C1449.41 376.694 1451.26 377.193 1452.93 377.894C1454.6 378.594 1455.43 379.242 1455.43 379.836M1501.86 350.652C1501.86 347.064 1502.44 344.049 1503.59 341.607C1505.88 336.755 1510.16 334.388 1516.44 334.504C1520.89 334.621 1525.15 336.171 1529.23 339.165C1531.64 340.906 1533.44 342.849 1534.62 344.993C1537.15 342.626 1540.57 341.501 1544.91 341.607C1547.96 341.639 1551.33 342.679 1555.03 344.717C1555.33 344.898 1555.61 345.089 1555.86 345.269C1556.53 342.573 1557.64 339.993 1559.2 337.551C1563.54 331.001 1570.69 327.827 1580.67 328.007C1586.94 328.156 1593.08 330.194 1599.08 334.112C1605.98 338.624 1609.47 343.953 1609.54 350.089C1611.06 349.389 1612.96 349.06 1615.21 349.091C1620.07 349.198 1624.32 351.406 1627.95 355.695C1630.14 358.243 1631.89 360.907 1633.23 363.689C1634.83 360.695 1637.03 359.283 1639.85 359.474C1642.67 359.623 1645.1 361.47 1647.14 365.027C1649.07 368.318 1649.87 371.481 1649.54 374.518C1651.43 374.146 1654.5 374.666 1658.77 376.068C1663.04 377.469 1665.11 379.783 1665 383C1654.76 382.926 1641.04 382.703 1623.84 382.331C1606.68 382.002 1585.46 381.981 1560.21 382.278C1535 382.607 1515.07 382.671 1500.43 382.448C1485.79 382.225 1472.83 382.023 1461.55 381.832C1459.7 378.541 1460.47 376.28 1463.89 375.059C1467.3 373.806 1469.56 373.435 1470.68 373.955C1471.72 374.433 1472.25 374.677 1472.29 374.677C1472.44 374.677 1472.55 374.656 1472.62 374.624V374.507C1472.77 372.585 1473.15 370.919 1473.74 369.517C1474.86 366.746 1477.06 365.398 1480.36 365.462C1482.55 365.494 1484.31 366.067 1485.65 367.182C1485.98 364.857 1486.62 362.818 1487.54 361.077C1489.91 356.64 1494.06 354.474 1500 354.591C1500.75 354.548 1501.47 354.591 1502.17 354.697C1501.99 353.55 1501.89 352.202 1501.89 350.641M1427.39 381.057C1427.14 380.802 1427 380.388 1427 379.836C1427 378.615 1428.1 377.915 1430.28 377.724C1432.47 377.543 1433.55 378.244 1433.55 379.836C1433.55 380.282 1433.46 380.633 1433.28 380.887C1432.8 381.482 1431.8 381.779 1430.28 381.779C1428.76 381.779 1427.86 381.535 1427.38 381.057H1427.39Z" fill="#EFF8FF"/>
<path d="M1337.6 474.069C1337.23 474.348 1336.8 474.626 1336.27 474.935C1336.21 474.317 1336.06 473.73 1335.84 473.173C1332.31 465.264 1327.79 461.31 1322.22 461.31C1315.47 461.31 1309.03 463.503 1302.87 467.89C1296.43 472.278 1293.17 477.252 1293.17 482.813C1293.17 485.439 1293.61 489.116 1294.51 493.781C1294.51 495.82 1293.64 497.736 1291.87 499.497C1290.11 501.258 1288.22 502.123 1286.15 502.123C1283.21 502.123 1281.16 501.536 1279.99 500.362C1278.81 498.91 1276.92 498.168 1274.26 498.168C1272.49 498.168 1269.27 500.207 1264.57 504.316C1259.58 508.425 1256.64 510.465 1255.77 510.465C1253.14 508.117 1249.33 506.942 1244.35 506.942C1239.64 506.942 1235.25 508.395 1231.16 511.33C1227.04 513.956 1225 516.736 1225 519.672V521C1379.18 516.984 1509.53 515.377 1616.06 516.18C1616.34 515.099 1616.49 513.801 1616.49 512.226C1616.49 503.451 1611.94 499.064 1602.87 499.064C1597.02 499.342 1592.9 500.393 1590.55 502.123H1587.48C1588.07 500.362 1588.23 498.91 1587.92 497.736C1587.33 495.387 1584.85 494.213 1580.43 494.213C1576 494.213 1572.65 494.8 1570.3 495.975V490.691C1570.58 488.343 1569.71 487.169 1567.67 487.169C1567.08 487.169 1566.06 487.447 1564.6 488.034C1564.33 488.096 1564.02 488.096 1563.74 488.034C1564.02 487.355 1564.17 485.872 1564.17 483.647C1564.17 470.177 1558.01 463.441 1545.69 463.441C1530.42 463.441 1521.94 468.57 1520.18 478.797C1518.41 488.745 1516.52 493.719 1514.45 493.719C1512.68 493.719 1510.64 493.287 1508.29 492.391C1505.93 491.217 1504.63 490.63 1504.32 490.63C1503.46 490.63 1501.26 491.649 1497.73 493.688C1493.92 495.449 1491.41 496.314 1490.24 496.314C1488.19 496.314 1486.43 494.553 1484.94 491.031C1483.77 487.231 1481.41 485.316 1477.92 485.316C1474.7 485.316 1472.22 485.748 1470.42 486.644C1470.52 486.984 1470.52 487.262 1470.42 487.509L1469.09 488.374C1469.46 487.725 1469.9 487.138 1470.42 486.613C1474.54 477.221 1476.58 472.092 1476.58 471.258C1476.58 466.871 1476.31 463.936 1475.72 462.484C1473.95 458.374 1469.87 456.335 1463.4 456.335H1462.06C1461.75 446.511 1458.97 437.582 1453.7 429.549C1446.09 417.839 1434.63 412 1419.4 412C1405.03 412 1392.71 416.109 1382.43 424.297C1371.6 432.793 1366.15 443.761 1366.15 457.231C1366.15 462.793 1366.74 468.632 1367.91 474.78H1367.48C1366.61 473.019 1365.72 471.567 1364.85 470.393C1362.8 468.354 1360.14 467.334 1356.92 467.334C1350.17 467.334 1343.73 469.528 1337.57 473.915M1734.83 500.856C1734.83 493.534 1734.55 488.992 1733.96 487.262C1731.91 482.288 1726.93 479.785 1719 479.785C1706.09 479.785 1698.48 482.566 1696.12 488.127C1694.95 491.062 1695.1 494.862 1696.56 499.527H1692.16C1688.35 498.075 1685.57 497.334 1683.8 497.334C1681.76 497.334 1679.84 498.786 1678.07 501.721C1676.62 504.656 1675.13 506.108 1673.68 506.108C1671.63 506.108 1669.44 504.934 1667.08 502.586C1664.73 499.96 1663.28 498.632 1662.69 498.632C1661.82 498.632 1659.9 499.219 1656.96 500.393C1653.74 501.567 1651.39 502.895 1649.93 504.347C1646.99 506.386 1645.54 508.734 1645.54 511.361C1645.41 513.554 1645.26 515.161 1645.1 516.18C1658.01 516.52 1687.33 516.242 1733.09 515.315C1734.27 511.824 1734.86 506.973 1734.86 500.825M1773.09 496.005C1769.56 496.005 1766.19 497.334 1762.97 499.96C1758.7 503.668 1756.62 508.642 1756.81 514.883C1770.62 514.512 1785.57 514.079 1801.67 513.554C1802.54 511.083 1803 509.321 1803 508.271C1803 502.988 1800.21 500.362 1794.64 500.362C1786.71 501.814 1782.63 502.555 1782.32 502.555C1780.28 502.555 1778.51 501.536 1777.02 499.497C1775.85 497.149 1774.52 495.975 1773.06 495.975L1773.09 496.005Z" fill="#EFF8FF"/>
<path d="M-52.397 474.069C-52.7685 474.348 -53.2019 474.626 -53.7283 474.935C-53.7902 474.317 -53.945 473.73 -54.1617 473.173C-57.6912 465.264 -62.2114 461.31 -67.7843 461.31C-74.5337 461.31 -80.9734 463.503 -87.1346 467.89C-93.5743 472.278 -96.8252 477.252 -96.8252 482.813C-96.8252 485.439 -96.3917 489.116 -95.4939 493.781C-95.4939 495.82 -96.3608 497.736 -98.1255 499.497C-99.8902 501.258 -101.779 502.123 -103.853 502.123C-106.794 502.123 -108.838 501.536 -110.014 500.362C-111.191 498.91 -113.079 498.168 -115.742 498.168C-117.507 498.168 -120.727 500.207 -125.433 504.316C-130.417 508.425 -133.358 510.465 -134.225 510.465C-136.857 508.117 -140.665 506.942 -145.65 506.942C-150.356 506.942 -154.752 508.395 -158.839 511.33C-162.957 513.956 -165 516.736 -165 519.672V521C-10.8171 516.984 119.526 515.377 226.061 516.18C226.34 515.099 226.494 513.801 226.494 512.226C226.494 503.451 221.943 499.064 212.872 499.064C207.02 499.342 202.903 500.393 200.55 502.123H197.485C198.073 500.362 198.228 498.91 197.918 497.736C197.33 495.387 194.853 494.213 190.426 494.213C185.998 494.213 182.654 494.8 180.302 495.975V490.691C180.58 488.343 179.713 487.169 177.67 487.169C177.082 487.169 176.06 487.447 174.605 488.034C174.326 488.096 174.017 488.096 173.738 488.034C174.017 487.355 174.171 485.872 174.171 483.647C174.171 470.177 168.01 463.441 155.688 463.441C140.424 463.441 131.941 468.57 130.177 478.797C128.412 488.745 126.523 493.719 124.449 493.719C122.684 493.719 120.641 493.287 118.288 492.391C115.935 491.217 114.634 490.63 114.325 490.63C113.458 490.63 111.26 491.649 107.73 493.688C103.922 495.449 101.414 496.314 100.238 496.314C98.1945 496.314 96.4297 494.553 94.9436 491.031C93.7672 487.231 91.4142 485.316 87.9156 485.316C84.6957 485.316 82.2189 485.748 80.4232 486.644C80.5161 486.984 80.5161 487.262 80.4232 487.509L79.0919 488.374C79.4634 487.725 79.8969 487.138 80.4232 486.613C84.5409 477.221 86.5843 472.092 86.5843 471.258C86.5843 466.871 86.3057 463.936 85.7174 462.484C83.9527 458.374 79.8659 456.335 73.3952 456.335H72.0639C71.7543 446.511 68.9678 437.582 63.7046 429.549C56.0883 417.839 44.633 412 29.4004 412C15.0348 412 2.71257 416.109 -7.56628 424.297C-18.4024 432.793 -23.8515 443.761 -23.8515 457.231C-23.8515 462.793 -23.2632 468.632 -22.0867 474.78H-22.5202C-23.3871 473.019 -24.2849 471.567 -25.1518 470.393C-27.1952 468.354 -29.8578 467.334 -33.0777 467.334C-39.827 467.334 -46.2668 469.528 -52.4279 473.915M344.825 500.856C344.825 493.534 344.547 488.992 343.958 487.262C341.915 482.288 336.93 479.785 329.004 479.785C316.094 479.785 308.478 482.566 306.125 488.127C304.948 491.062 305.103 494.862 306.558 499.527H302.162C298.354 498.075 295.567 497.334 293.802 497.334C291.759 497.334 289.839 498.786 288.075 501.721C286.62 504.656 285.133 506.108 283.678 506.108C281.635 506.108 279.437 504.934 277.084 502.586C274.731 499.96 273.276 498.632 272.687 498.632C271.82 498.632 269.901 499.219 266.96 500.393C263.74 501.567 261.387 502.895 259.932 504.347C256.99 506.386 255.535 508.734 255.535 511.361C255.411 513.554 255.257 515.161 255.102 516.18C268.012 516.52 297.332 516.242 343.091 515.315C344.268 511.824 344.856 506.973 344.856 500.825M383.092 496.005C379.563 496.005 376.188 497.334 372.968 499.96C368.696 503.668 366.621 508.642 366.807 514.883C380.615 514.512 395.569 514.079 411.669 513.554C412.536 511.083 413 509.321 413 508.271C413 502.988 410.214 500.362 404.641 500.362C396.715 501.814 392.628 502.555 392.318 502.555C390.275 502.555 388.51 501.536 387.024 499.497C385.848 497.149 384.516 495.975 383.061 495.975L383.092 496.005Z" fill="#EFF8FF"/>
<path opacity="0.4" d="M587.462 229.991C587.925 229.692 588.277 229.42 588.555 229.165C588.598 228.302 588.796 223.675 588.2 221.605C587.674 219.776 578.788 209.137 573.804 204.367C572.603 203.232 571.639 202.449 571.09 202.228C569.596 201.629 567.039 201.691 564.273 201.759C561.807 201.82 559.175 201.884 556.98 201.487C556.376 201.371 555.712 201.169 555.013 200.905C550.318 199.191 544 194.538 544 194.538C544 194.538 551.15 194.07 559.587 193.734L559.594 193.744C565.985 193.481 573.138 193.284 578.495 193.423C590.249 193.736 599.198 198.488 600.377 199.798C600.478 199.9 600.538 199.985 600.556 200.048C600.627 200.294 600.61 200.95 600.588 201.824C600.53 204.053 600.437 207.698 601.677 209.549C601.786 209.711 601.915 209.87 602.062 210.026C604.112 212.13 609.347 213.617 610.186 213.845C610.809 213.662 611.46 213.486 612.125 213.329L612.136 213.314C614.725 212.71 617.469 212.38 619.499 213.013C620.513 213.356 621.312 213.695 621.897 214.031L621.909 214.06C624.023 215.217 624.214 216.377 624.218 216.402C624.262 216.463 624.298 216.524 624.328 216.585C624.369 216.597 624.419 216.613 624.477 216.63C625.41 216.914 628.424 217.829 628.846 218.924C629.308 220.124 628.768 220.277 628.561 219.84C628.413 219.527 628.177 219.49 627.938 219.452C627.843 219.437 627.747 219.422 627.656 219.39C627.628 219.38 627.566 219.359 627.478 219.33C626.902 219.136 625.18 218.559 624.011 218C623.876 218.164 623.716 218.322 623.546 218.473C623.215 218.771 622.842 219.042 622.526 219.272C622.113 219.574 621.795 219.805 621.793 219.935C621.728 220.081 621.209 221.094 620.389 222.447C621.187 222.928 623.901 224.352 628.476 224.659C634 225.029 637.582 225.96 639.613 229.518C641.544 232.953 647.847 252.983 648.388 258.894C648.43 259.191 648.428 259.485 648.425 259.696C648.425 259.712 648.424 259.728 648.424 259.744C648.423 259.785 648.423 259.827 648.422 259.869C648.401 262.805 649.08 267.412 649.554 270.629C649.815 272.4 650.014 273.75 649.999 274.167C650 274.218 649.998 274.259 649.993 274.29C649.871 275.155 642.614 269.444 639.618 262.727C638.897 261.106 638.095 259.4 637.282 257.72C636.756 256.649 636.217 255.582 635.673 254.539C633.574 250.547 631.406 246.929 629.57 244.831C626.464 241.309 612.398 234.988 610.159 234.081C609.187 233.694 607.993 233.646 606.933 233.706C603.282 235.324 599.361 236.701 596.786 237.201C593.556 237.829 592.09 238.368 591.086 238.955C590.892 239.236 590.689 239.532 590.482 239.834C589.453 241.336 588.318 242.993 587.703 243.7C586.551 245.088 583.34 247.522 582.748 247.62C582.536 247.655 582.316 247.766 582.111 247.869C581.743 248.055 581.425 248.215 581.293 247.865C581.113 247.435 582.173 246.654 582.44 246.466C582.285 246.568 581.834 246.835 581.148 246.996C580.365 247.178 580.786 246.714 581.443 245.99L581.555 245.867L581.653 245.759C581.78 245.618 581.99 245.438 582.258 245.232C580.404 244.864 577.643 243.791 575.956 243.003C575.651 242.86 575.377 242.648 575.133 242.385C573.669 240.877 573.265 237.552 573.851 236.241L573.82 236.247C573.855 236.145 573.912 236.066 573.962 235.994C573.992 235.951 574.021 235.911 574.041 235.871C574.522 235.404 576.894 234.462 579.567 233.401C582.06 232.412 584.816 231.318 586.542 230.407C586.54 230.446 586.538 230.485 586.534 230.524C586.888 230.338 587.201 230.16 587.462 229.991Z" fill="#B9E3FE"/>
</g>
<defs>
<filter id="filter0_f_7683_26382" x="547.1" y="-888.177" width="1359.96" height="1361.85" filterUnits="userSpaceOnUse" color-interpolation-filters="sRGB">
<feFlood flood-opacity="0" result="BackgroundImageFix"/>
<feBlend mode="normal" in="SourceGraphic" in2="BackgroundImageFix" result="shape"/>
<feGaussianBlur stdDeviation="175" result="effect1_foregroundBlur_7683_26382"/>
</filter>
<filter id="filter1_f_7683_26382" x="-751.555" y="-200.581" width="1888.77" height="1696.82" filterUnits="userSpaceOnUse" color-interpolation-filters="sRGB">
<feFlood flood-opacity="0" result="BackgroundImageFix"/>
<feBlend mode="normal" in="SourceGraphic" in2="BackgroundImageFix" result="shape"/>
<feGaussianBlur stdDeviation="175" result="effect1_foregroundBlur_7683_26382"/>
</filter>
<clipPath id="clip0_7683_26382">
<rect width="1552" height="512" fill="white"/>
</clipPath>
</defs>
</svg>

<svg xmlns="http://www.w3.org/2000/svg" fill="none" viewBox="0 0 1552 512">
  <g clip-path="url(#a)">
    <path fill="#fff" d="M67.3 301c17.2-1 18 15 18 15s1-.5 2.8-1a23.5 23.5 0 0 1 12.2 0c8.2 2.4 8.5 9.2 8.5 9.4h.4c2.3-.1 15.6-.4 27.7 1 12.9 1.6 9.5 8.5 9.3 8.8a309 309 0 0 0 27-4.4c1.5-.3 3-.5 4.7-.5h.1c9 0 20 5 12.5 7.6-2 .7-13.7 1.3-31.3 1.9h-.4a2829.1 2829.1 0 0 1-10.2.3h-2.3a3553 3553 0 0 1-52.5 1.1h-.4c-69.3 1.2-150 1.7-148.4.7 15.6-8.6 47.3-8.9 47.3-8.9s4.7-13 15.2-14.2c10.5-1.2 12.2 10.9 12.2 11 0-.1 2.4-4.9 8-7.4 5.7-2.6 11-2.1 11-2.1S50.1 302 67.3 301Z" opacity=".9"/>
    <g filter="url(#b)" opacity=".5">
      <path fill="#DAF0FF" d="M1005.6 43.2c-135-119.5-145.5-328.5-23.1-466.8 122.3-138.3 331-153.5 466-34C1583.6-338.3 1594-129.3 1471.7 9s-331 153.5-466 34Z"/>
    </g>
    <g filter="url(#c)" opacity=".6">
      <ellipse cx="192.8" cy="647.8" fill="#DAF0FF" rx="442.8" ry="636.8" transform="rotate(-120 192.8 647.8)"/>
    </g>
    <path fill="#EFF8FF" d="M1455.4 379.8c0 1.1-.6 1.8-2 2l-1-.3h-11c-1.4-.3-2.1-1-2.1-2 0-2.9 2.7-3.9 8-3.1 2.1.3 4 .8 5.6 1.5 1.7.7 2.5 1.3 2.5 2m46.5-29.2c0-3.6.5-6.7 1.7-9 2.3-5 6.6-7.3 12.8-7.2 4.5.1 8.8 1.7 12.8 4.7a18 18 0 0 1 5.4 5.8 14 14 0 0 1 10.3-3.4 21.8 21.8 0 0 1 11 3.7c.6-2.7 1.7-5.3 3.3-7.7 4.3-6.6 11.5-9.8 21.5-9.6 6.2.2 12.4 2.2 18.4 6.1 6.9 4.5 10.4 9.9 10.4 16 1.6-.7 3.5-1 5.7-1 4.9.1 9.1 2.3 12.8 6.6 2.1 2.5 3.9 5.2 5.2 8 1.6-3 3.8-4.4 6.6-4.2 2.9.1 5.3 2 7.3 5.5 2 3.3 2.8 6.5 2.4 9.5 2-.4 5 .2 9.3 1.6 4.2 1.4 6.3 3.7 6.2 6.9-10.2 0-24-.3-41.2-.7-17.1-.3-38.3-.3-63.6 0a2242.3 2242.3 0 0 1-98.7-.5c-1.8-3.3-1-5.5 2.4-6.7 3.4-1.3 5.7-1.7 6.8-1.1l1.6.7h.3v-.2c.2-2 .6-3.6 1.1-5 1.2-2.8 3.4-4.1 6.7-4 2.1 0 4 .6 5.3 1.7.3-2.3 1-4.4 1.8-6.1 2.4-4.5 6.6-6.6 12.5-6.5l2.2.1c-.2-1.1-.3-2.5-.3-4m-74.5 30.4c-.3-.3-.4-.7-.4-1.3 0-1.2 1.1-1.9 3.3-2 2.2-.3 3.3.4 3.3 2 0 .5-.1.8-.3 1-.5.7-1.5 1-3 1s-2.4-.3-3-.7Z" opacity=".5"/>
    <path fill="#EFF8FF" d="m1337.6 474-1.3 1c0-.7-.2-1.3-.5-1.8-3.5-8-8-11.9-13.6-11.9-6.7 0-13.2 2.2-19.3 6.6-6.5 4.4-9.7 9.4-9.7 15 0 2.5.4 6.2 1.3 10.9 0 2-.9 4-2.6 5.7a8 8 0 0 1-5.8 2.6c-2.9 0-5-.6-6.1-1.7-1.2-1.5-3-2.2-5.7-2.2-1.8 0-5 2-9.7 6.1-5 4.1-8 6.2-8.8 6.2-2.7-2.4-6.5-3.6-11.5-3.6-4.7 0-9 1.5-13.1 4.4-4.2 2.7-6.2 5.4-6.2 8.4v1.3c154.2-4 284.5-5.6 391-4.8.3-1.1.5-2.4.5-4 0-8.7-4.6-13.1-13.6-13.1-5.9.2-10 1.3-12.4 3h-3c.6-1.7.7-3.2.4-4.4-.6-2.3-3-3.5-7.5-3.5-4.4 0-7.8.6-10.1 1.8v-5.3c.3-2.4-.6-3.5-2.6-3.5-.6 0-1.6.2-3.1.8a2 2 0 0 1-.9 0c.3-.6.5-2.1.5-4.4 0-13.4-6.2-20.2-18.5-20.2-15.3 0-23.8 5.2-25.5 15.4-1.8 10-3.7 15-5.8 15-1.7 0-3.8-.5-6.1-1.4a21.8 21.8 0 0 0-4-1.8c-.8 0-3 1-6.6 3a24.6 24.6 0 0 1-7.5 2.7c-2 0-3.8-1.7-5.3-5.3-1.1-3.8-3.5-5.7-7-5.7a17 17 0 0 0-7.5 1.3v1l-1.3.8c.4-.7.8-1.3 1.3-1.8 4.1-9.4 6.2-14.5 6.2-15.3a28 28 0 0 0-.9-8.8c-1.8-4.1-5.8-6.2-12.3-6.2h-1.3c-.3-9.8-3.1-18.7-8.4-26.8a38.2 38.2 0 0 0-34.3-17.5 57.5 57.5 0 0 0-37 12.3 40 40 0 0 0-16.3 33c0 5.5.6 11.3 1.8 17.5h-.4c-.9-1.8-1.8-3.2-2.7-4.4-2-2-4.7-3-7.9-3-6.7 0-13.2 2.1-19.3 6.5m397.2 27c0-7.4-.3-12-.8-13.6-2-5-7-7.5-15-7.5-13 0-20.5 2.8-22.9 8.3-1.1 3-1 6.8.5 11.4h-4.4a27.1 27.1 0 0 0-8.4-2.2c-2 0-4 1.5-5.7 4.4-1.5 3-3 4.4-4.4 4.4-2 0-4.3-1.2-6.6-3.5-2.4-2.6-3.8-4-4.4-4-.9 0-2.8.6-5.7 1.8a19.5 19.5 0 0 0-7 4c-3 2-4.5 4.3-4.5 7 0 2.2-.2 3.8-.4 4.8 13 .3 42.2 0 88-.9a47 47 0 0 0 1.8-14.5m38.2-4.8c-3.5 0-7 1.3-10.1 4a18 18 0 0 0-6.2 14.9l44.9-1.3a19 19 0 0 0 1.3-5.3c0-5.3-2.8-8-8.4-8l-12.3 2.3c-2 0-3.8-1-5.3-3.1-1.2-2.4-2.5-3.5-4-3.5ZM-52.4 474l-1.3 1c0-.7-.2-1.3-.5-1.8-3.5-8-8-11.9-13.6-11.9-6.7 0-13.2 2.2-19.3 6.6-6.5 4.4-9.7 9.4-9.7 15 0 2.5.4 6.2 1.3 10.9 0 2-.9 4-2.6 5.7a8 8 0 0 1-5.8 2.6c-2.9 0-5-.6-6.1-1.7-1.2-1.5-3-2.2-5.7-2.2-1.8 0-5 2-9.7 6.1-5 4.1-8 6.2-8.8 6.2-2.7-2.4-6.5-3.6-11.5-3.6-4.7 0-9 1.5-13.1 4.4-4.2 2.7-6.2 5.4-6.2 8.4v1.3c154.2-4 284.5-5.6 391-4.8.3-1.1.5-2.4.5-4 0-8.7-4.6-13.1-13.6-13.1-5.9.2-10 1.3-12.3 3h-3.1c.6-1.7.7-3.2.4-4.4-.6-2.3-3-3.5-7.5-3.5-4.4 0-7.7.6-10.1 1.8v-5.3c.3-2.4-.6-3.5-2.6-3.5-.6 0-1.6.2-3 .8a2 2 0 0 1-1 0c.3-.6.5-2.1.5-4.4 0-13.4-6.2-20.2-18.5-20.2-15.3 0-23.8 5.2-25.5 15.4-1.8 10-3.7 15-5.8 15-1.7 0-3.8-.5-6.1-1.4a21.6 21.6 0 0 0-4-1.8c-.8 0-3 1-6.6 3a24.5 24.5 0 0 1-7.5 2.7c-2 0-3.8-1.7-5.3-5.3-1.1-3.8-3.5-5.7-7-5.7a17 17 0 0 0-7.5 1.3v1l-1.3.8c.4-.7.8-1.3 1.3-1.8 4.1-9.4 6.2-14.5 6.2-15.3a28 28 0 0 0-.9-8.8c-1.7-4.1-5.8-6.2-12.3-6.2h-1.3a50.9 50.9 0 0 0-8.4-26.8A38.2 38.2 0 0 0 29.4 412a57.5 57.5 0 0 0-37 12.3 40 40 0 0 0-16.3 33c0 5.5.6 11.3 1.8 17.5h-.4c-.9-1.8-1.8-3.2-2.7-4.4-2-2-4.7-3-7.9-3-6.7 0-13.2 2.1-19.3 6.5m397.2 27c0-7.4-.3-12-.8-13.6-2-5-7-7.5-15-7.5-13 0-20.5 2.8-22.9 8.3-1.2 3-1 6.8.5 11.4h-4.4a27.1 27.1 0 0 0-8.4-2.2c-2 0-4 1.5-5.7 4.4-1.5 3-3 4.4-4.4 4.4-2 0-4.3-1.2-6.6-3.5-2.4-2.6-3.8-4-4.4-4-.9 0-2.8.6-5.7 1.8a19.4 19.4 0 0 0-7 4c-3 2-4.5 4.3-4.5 7 0 2.2-.2 3.8-.4 4.8 13 .3 42.2 0 88-.9 1.2-3.5 1.8-8.3 1.8-14.5M383 496c-3.5 0-7 1.3-10.1 4a18 18 0 0 0-6.2 14.9l44.9-1.3c.8-2.5 1.3-4.3 1.3-5.3 0-5.3-2.8-8-8.4-8l-12.3 2.3c-2 0-3.8-1-5.3-3.1-1.2-2.4-2.5-3.5-4-3.5Z"/>
    <path fill="#B9E3FE" d="m587.5 230 1-.8c.1-.9.3-5.5-.3-7.6-.5-1.8-9.4-12.5-14.4-17.2a12 12 0 0 0-2.7-2.2c-1.5-.6-4-.5-6.8-.4a38 38 0 0 1-7.3-.3l-2-.6c-4.7-1.7-11-6.4-11-6.4l15.6-.8c6.4-.2 13.5-.4 18.9-.3a40.5 40.5 0 0 1 22 6.6v1.8c0 2.3 0 5.9 1.2 7.7 0 .2.2.4.4.5 2 2.1 7.2 3.6 8 3.8l2-.5a15 15 0 0 1 7.4-.3l2.4 1c2.1 1.2 2.3 2.4 2.3 2.4l.1.2h.2c1 .3 4 1.2 4.3 2.3.5 1.2 0 1.4-.2 1-.2-.4-.4-.4-.7-.4l-.2-.1h-.2c-.6-.3-2.3-.8-3.5-1.4l-.5.5-1 .8-.7.6-1.4 2.5c.8.5 3.5 2 8 2.3 5.6.3 9.2 1.3 11.2 4.8a153.6 153.6 0 0 1 8.8 30.2v.2c0 3 .7 7.5 1.2 10.7l.4 3.6c-.1 1-7.4-4.8-10.4-11.5a174.1 174.1 0 0 0-4-8.2c-2-4-4.2-7.6-6-9.7a87.8 87.8 0 0 0-19.4-10.7c-1-.4-2.2-.5-3.3-.4a54 54 0 0 1-10.1 3.5 18 18 0 0 0-5.7 1.8l-.6.8-2.8 3.9a19.7 19.7 0 0 1-5 4c-.2 0-.4 0-.6.2-.4.2-.7.3-.8 0-.2-.5.9-1.2 1.1-1.4l-1.3.5c-.7.2-.3-.3.3-1l.2-.1v-.1l.7-.6a33 33 0 0 1-6.3-2.2l-.9-.6c-1.4-1.5-1.8-4.8-1.2-6.2v-.2l.1-.1a32 32 0 0 1 5.6-2.5c2.5-1 5.2-2 7-3v.1l.9-.5Z" opacity=".4"/>
  </g>
  <defs>
    <filter id="b" width="1360" height="1361.8" x="547.1" y="-888.2" color-interpolation-filters="sRGB" filterUnits="userSpaceOnUse">
      <feFlood flood-opacity="0" result="BackgroundImageFix"/>
      <feBlend in="SourceGraphic" in2="BackgroundImageFix" result="shape"/>
      <feGaussianBlur result="effect1_foregroundBlur_7683_26382" stdDeviation="175"/>
    </filter>
    <filter id="c" width="1888.8" height="1696.8" x="-751.6" y="-200.6" color-interpolation-filters="sRGB" filterUnits="userSpaceOnUse">
      <feFlood flood-opacity="0" result="BackgroundImageFix"/>
      <feBlend in="SourceGraphic" in2="BackgroundImageFix" result="shape"/>
      <feGaussianBlur result="effect1_foregroundBlur_7683_26382" stdDeviation="175"/>
    </filter>
    <clipPath id="a">
      <path fill="#fff" d="M0 0h1552v512H0z"/>
    </clipPath>
  </defs>
</svg>
